X:58
T:Old Grey Cat
M:4/4
L:1/8
K:EDor
e2 e2 E3F| GFGA BABc|d2d2 D3E|FAdB AFED|
e2e2 E3F| GFGA BABc|dcBA BAGF|E4 E3A :|
|: B2e2 e3d|Bdef gfed|d2d2 d3B|ABde fedf|
e2B2 g2B2|aB b3a|gfed BABd|e4 e4 :|
